X: 41718
T: Valley Road
R: jig
M: 6/8
K: Aminor
|:B/d/|"Am"ecB ABA|"Am"ecA ecA|"G"dBG G^FG|"G"dBG dBG|
"Am"ecB ABA|"C"ece "Em"e^fg|"Am"age "G"dBd|"Am"cAA A2:|
|:B|"Am"cee "Am7"age|"Am"a^ga "Em"ba=g|"G"d^cd ge^f|"G"ged ged|
"Am"cee "Am7"age|"Am"a^ga "G"ba=g|"Em"e^fg "G"dBd|"Am"cAA A2:|

